X: 67
T:Morfa Rhuddlan (fersiwn 2)
T:Rhuddlan Marsh (version 2)
M:3/4
L:1/8
Q:160
S:Mary Richards' (1787-1877) Collection
A:Wales
Z:brian_martin12345@yahoo.com
K:Am
c/B/|A2AB cA|ef ge dc|Bc dB cA|e>f ed cB|cA AB cA|e>f ge dB|c>d cBA2|^G2 A3:||
z|ge ef ge|fd de fd|c>a gf fd|ec cd ec|ge ef ge|fd de fd|c>a gf fd|c6|
cc/d/ ef ec|BB/c/ de dB|AA/B/ cd cA|e>f ed cB|cA AB cA|ef ge dB|c>d cB A2|^G2A3:||
